icon-svg/double-window-open.svg

<svg xmlns="http://www.w3.org/2000/svg" viewBox="0 0 24 24"><path fill="#44739e" d="M7.794 22 8 21.98l.078-19.968L7.805 2ZM4.857 3.555v16.652l.328.206L7.675 22V2L5.237 3.349Zm2.676-.606v.125L5.376 4.252l-.043 15.38 2.2 1.143v.209l-2.339-1.271.049-15.481Zm-.009.251v17.355l-1.939-.993V4.24Zm1.033-.361-.003.139 10.345-.543.026 18.781.427-.356.02-18.596Zm3.243.174-.2.012-3.053.162.013.63 2.719-.117.041 16.237-2.775-.047v.128l2.775.058v.163l-2.775-.076v.566l2.775.107.478.024 6.02.349.91.06.02-17.7v-.92Zm.633.862 5.354-.264.009 16.208-5.4-.146ZM17.8 20.323v-.015l-6-.244V3.9l.163-.006-.009 16.047 5.843.18v.183ZM8.197 2.25l-.055 19.469.284-.044-.011-19.393ZM4.735 3.5l.447-.226-.554.032V20.5l.531.023-.398-.255Zm2.667-.151-1.065.566 1.065-.055Zm-1.735-.322-.311.038-.699.122.78-.047ZM7.39 19.864l-1.036-.035.235.114.807.034Zm-.534.235.546.244-.003-.209Z"/></svg>

<?xml version="1.0" encoding="UTF-8"?>
<svg width="24px" fill="#44739e" height="24px" viewBox="0 0 24 24" version="1.1" xmlns="http://www.w3.org/2000/svg" xmlns:xlink="http://www.w3.org/1999/xlink">
            <path d="M 7.794,22 8,21.98 8.078,2.012 7.805,2 Z M 4.857,3.555 V 20.207 L 5.185,20.413 7.675,22 V 2 L 5.237,3.349 Z M 7.533,2.949 v 0.125 l -2.157,1.178 -0.043,15.38 2.2,1.143 v 0.209 L 5.194,19.713 5.243,4.232 Z M 7.524,3.2 V 20.555 L 5.585,19.562 V 4.24 Z M 8.557,2.839 8.554,2.978 18.899,2.435 18.925,21.216 19.352,20.86 19.372,2.264 Z M 11.8,3.013 11.6,3.025 8.547,3.187 8.56,3.817 11.279,3.7 11.32,19.937 8.545,19.89 v 0.128 l 2.775,0.058 v 0.163 L 8.545,20.163 v 0.566 l 2.775,0.107 0.478,0.024 6.02,0.349 0.91,0.06 0.02,-17.7 v -0.92 z m 0.633,0.862 5.354,-0.264 0.009,16.208 -5.4,-0.146 z M 17.8,20.323 v -0.015 l -6,-0.244 V 3.9 l 0.163,-0.006 -0.009,16.047 5.843,0.18 v 0.183 z M 8.197,2.25 8.142,21.719 8.426,21.675 8.415,2.282 Z M 4.735,3.5 5.182,3.274 4.628,3.306 V 3.381 3.512 20.215 20.5 L 5.159,20.523 4.761,20.268 Z M 7.402,3.349 6.337,3.915 7.402,3.86 Z M 5.667,3.027 5.356,3.065 4.657,3.187 5.437,3.14 Z m 1.723,16.837 -1.036,-0.035 0.235,0.114 0.807,0.034 z m -0.534,0.235 0.546,0.244 -0.003,-0.209 z"/>

</svg>
